X:1
T: Ten for the Ten Commandments
N:
C:"Bonny Sweet Robin" by Holborne
S:
A:
O:
R:
M:3/4
K:Am
I:speed 150
%W: A
% voice 1 (1 lines, 22 notes)
K:Am
M:3/4
L:1/16
A4 |c6 d2 c4 |B8 A4 |g4 e4 a4 |e8 A4 |c2 B2 c2 d2 c4 |B8 A4 |g4 e4 a4 |e12 |
%W: B1
% voice 1 (1 lines, 22 notes)
e4 a4 g4 |^f6 e2 d4 |g6 f2 e2 d2 |c6 B2 A4 |g8 e4 |c6 d2 e4 |d6 c2 B4 |A12 |
%W: B2
% voice 1 (1 lines, 22 notes)
e4 a4 g4 |^f6 e2 d4 |g6 f2 e2 d2 |c6 B2 A4 |g8 e4 |c6 d2 e4 |d6 c2 B4 |A8 ||
